docs/img/appwrite-logomark-pink.svg

<svg fill="none" height="49" viewBox="0 0 56 49" width="56" xmlns="http://www.w3.org/2000/svg"><g fill="#fd366e"><path d="m55.55 36.7364v12.2455h-31.1147c-9.065 0-16.98003-4.9249-21.21474-12.2455-.61561-1.0642-1.15441-2.1808-1.60638-3.3396-.887244-2.271-1.44497-4.7079-1.61418-7.2505v-3.3107c.0367364-.5666.0946242-1.1288.170324-1.6843.154738-1.14.388515-2.2554.695765-3.3397 2.906631-10.27953 12.357911-17.8116 23.569211-17.8116s20.6615 7.53207 23.5681 17.8116h-13.3042c-2.1841-3.3508-5.9646-5.5661-10.2639-5.5661s-8.0798 2.2153-10.2639 5.5661c-.6657 1.0186-1.1823 2.1418-1.5207 3.3397-.3006 1.062-.4609 2.1819-.4609 3.3397 0 3.51 1.4762 6.6737 3.8429 8.9058 2.193 2.0717 5.1497 3.3396 8.4026 3.3396z"/><path d="m55.55 21.1513v12.2455h-22.712c2.3667-2.232 3.8428-5.3958 3.8428-8.9058 0-1.1578-.1603-2.2777-.4609-3.3397z"/></g></svg>

<svg width="56" height="49" viewBox="0 0 56 49" fill="none" xmlns="http://www.w3.org/2000/svg">
<path d="M55.55 36.7364V48.9819H24.4353C15.3703 48.9819 7.45527 44.057 3.22056 36.7364C2.60495 35.6722 2.06615 34.5556 1.61418 33.3968C0.726936 31.1258 0.16921 28.6889 0 26.1463V22.8356C0.0367364 22.269 0.0946242 21.7068 0.170324 21.1513C0.325062 20.0113 0.558839 18.8959 0.866089 17.8116C3.77272 7.53207 13.224 0 24.4353 0C35.6466 0 45.0968 7.53207 48.0034 17.8116H34.6992C32.5151 14.4608 28.7346 12.2455 24.4353 12.2455C20.136 12.2455 16.3555 14.4608 14.1714 17.8116C13.5057 18.8302 12.9891 19.9534 12.6507 21.1513C12.3501 22.2133 12.1898 23.3332 12.1898 24.491C12.1898 28.001 13.666 31.1647 16.0327 33.3968C18.2257 35.4685 21.1824 36.7364 24.4353 36.7364H55.55Z" fill="#FD366E"/>
<path d="M55.55 21.1513V33.3968H32.838C35.2047 31.1648 36.6808 28.001 36.6808 24.491C36.6808 23.3332 36.5205 22.2133 36.2199 21.1513H55.55Z" fill="#FD366E"/>
</svg>
